NotoEmoji/emoji_u1f53c.svg

<svg enable-background="new 0 0 128 128" viewBox="0 0 128 128" xmlns="http://www.w3.org/2000/svg"><path d="m116 4h-104c-4.42 0-8 3.58-8 8v104c0 4.42 3.58 8 8 8h104c4.42 0 8-3.58 8-8v-104c0-4.42-3.58-8-8-8z" fill="#f77e00"/><path d="m109.7 4h-98.2c-4.13.03-7.47 3.37-7.5 7.5v97.9c-.01 4.14 3.34 7.49 7.48 7.5h.02 98.1c4.14.01 7.49-3.34 7.5-7.48 0-.01 0-.01 0-.02v-97.9c.09-4.05-3.13-7.41-7.18-7.5-.07 0-.15 0-.22 0z" fill="#ff9800"/><path d="m39.7 12.9c0-2.3-1.6-3-10.8-2.7-7.7.3-11.5 1.2-13.8 4s-2.9 8.5-3 15.3c0 4.8 0 9.3 2.5 9.3 3.4 0 3.4-7.9 6.2-12.3 5.4-8.7 18.9-10.6 18.9-13.6z" fill="#ffbd52" opacity=".75"/><path d="m64 36c.94.02 1.8.51 2.3 1.3l29.2 50.7c.73 1.29.28 2.92-1.01 3.65-.39.22-.84.34-1.29.35h-58.4c-1.48-.02-2.67-1.23-2.65-2.71.01-.45.12-.89.35-1.29l29.2-50.7c.5-.79 1.36-1.28 2.3-1.3" fill="#424242" opacity=".2"/><path d="m64 92h29.2c1.48-.02 2.67-1.23 2.65-2.71-.01-.45-.12-.89-.35-1.29l-29.2-50.7c-.7-1.27-2.31-1.73-3.58-1.02-.43.24-.79.59-1.02 1.02l-29.2 50.7c-.73 1.29-.28 2.92 1.01 3.65.39.22.84.34 1.29.35z" fill="#fafafa"/></svg>

<?xml version="1.0" encoding="utf-8"?>
<!-- Generator: Adobe Illustrator 25.2.3, SVG Export Plug-In . SVG Version: 6.00 Build 0)  -->
<svg version="1.1" id="Layer_2" xmlns="http://www.w3.org/2000/svg" xmlns:xlink="http://www.w3.org/1999/xlink" x="0px" y="0px"
	 viewBox="0 0 128 128" style="enable-background:new 0 0 128 128;" xml:space="preserve">
<g>
	<path style="fill:#F77E00;" d="M116,4H12c-4.42,0-8,3.58-8,8v104c0,4.42,3.58,8,8,8h104c4.42,0,8-3.58,8-8V12
		C124,7.58,120.42,4,116,4z"/>
	<path style="fill:#FF9800;" d="M109.7,4H11.5C7.37,4.03,4.03,7.37,4,11.5v97.9c-0.01,4.14,3.34,7.49,7.48,7.5c0.01,0,0.01,0,0.02,0
		h98.1c4.14,0.01,7.49-3.34,7.5-7.48c0-0.01,0-0.01,0-0.02V11.5c0.09-4.05-3.13-7.41-7.18-7.5C109.85,4,109.77,4,109.7,4z"/>
	<path style="opacity:0.75;fill:#FFBD52;enable-background:new    ;" d="M39.7,12.9c0-2.3-1.6-3-10.8-2.7c-7.7,0.3-11.5,1.2-13.8,4
		s-2.9,8.5-3,15.3c0,4.8,0,9.3,2.5,9.3c3.4,0,3.4-7.9,6.2-12.3C26.2,17.8,39.7,15.9,39.7,12.9z"/>
	<g style="opacity:0.2;">
		<path style="fill:#424242;" d="M64,36c0.94,0.02,1.8,0.51,2.3,1.3L95.5,88c0.73,1.29,0.28,2.92-1.01,3.65
			c-0.39,0.22-0.84,0.34-1.29,0.35H34.8c-1.48-0.02-2.67-1.23-2.65-2.71c0.01-0.45,0.12-0.89,0.35-1.29l29.2-50.7
			C62.2,36.51,63.06,36.02,64,36"/>
	</g>
	<path style="fill:#FAFAFA;" d="M64,92h29.2c1.48-0.02,2.67-1.23,2.65-2.71c-0.01-0.45-0.12-0.89-0.35-1.29L66.3,37.3
		c-0.7-1.27-2.31-1.73-3.58-1.02c-0.43,0.24-0.79,0.59-1.02,1.02L32.5,88c-0.73,1.29-0.28,2.92,1.01,3.65
		c0.39,0.22,0.84,0.34,1.29,0.35H64z"/>
</g>
</svg>
